material/.icons/material/dolby.svg

<svg xmlns="http://www.w3.org/2000/svg" viewBox="0 0 24 24"><path d="M2 5v14h20V5H2m4 12H4V7h2c2.86.09 5.1 2.33 5 5 .1 2.67-2.14 4.91-5 5m14 0h-2c-2.86-.09-5.1-2.33-5-5-.1-2.67 2.14-4.91 5-5h2v10z"/></svg>

<?xml version="1.0" encoding="UTF-8"?><!DOCTYPE svg PUBLIC "-//W3C//DTD SVG 1.1//EN" "http://www.w3.org/Graphics/SVG/1.1/DTD/svg11.dtd"><svg xmlns="http://www.w3.org/2000/svg" xmlns:xlink="http://www.w3.org/1999/xlink" version="1.1" id="mdi-dolby" width="24" height="24" viewBox="0 0 24 24"><path d="M2,5V19H22V5H2M6,17H4V7H6C8.86,7.09 11.1,9.33 11,12C11.1,14.67 8.86,16.91 6,17M20,17H18C15.14,16.91 12.9,14.67 13,12C12.9,9.33 15.14,7.09 18,7H20V17Z" /></svg>
